src/assets/icons/map.svg

﻿<?xml version="1.0" encoding="utf-8"?>
<!DOCTYPE svg PUBLIC "-//W3C//DTD SVG 1.1//EN" "http://www.w3.org/Graphics/SVG/1.1/DTD/svg11.dtd">
<svg xmlns="http://www.w3.org/2000/svg" xmlns:xlink="http://www.w3.org/1999/xlink" version="1.1" baseProfile="full" width="24" height="24" viewBox="0 0 24.00 24.00" enable-background="new 0 0 24.00 24.00" xml:space="preserve">
	<path fill="#000000" fill-opacity="1" stroke-width="0.2" stroke-linejoin="round" d="M 14.9994,18.9981L 8.99939,16.8911L 8.99939,4.99807L 14.9994,7.10506M 20.4994,2.99807C 20.4444,2.99807 20.3924,3.00406 20.3434,3.02306L 14.9994,5.09807L 8.99939,2.99807L 3.3624,4.89606C 3.1524,4.96607 2.99939,5.14707 2.99939,5.37607L 2.99939,20.4981C 2.99939,20.7741 3.22339,20.9981 3.49939,20.9981C 3.55438,20.9981 3.60638,20.9921 3.6564,20.9731L 8.99939,18.8981L 14.9994,20.9981L 20.6374,19.1001C 20.8474,19.0271 20.9994,18.8491 20.9994,18.6191L 20.9994,3.49807C 20.9994,3.22108 20.7764,2.99807 20.4994,2.99807 Z "/>
</svg>

<svg viewBox="0 0 24 24">
<path d="M20.5 3c-0.055 0-0.105 0.005-0.155 0.025l-5.345 2.075-6-2.1-5.635 1.9c-0.21 0.070-0.365 0.25-0.365 0.48v15.12c0 0.275 0.225 0.5 0.5 0.5 0.055 0 0.105-0.005 0.155-0.025l5.345-2.075 6 2.1 5.64-1.895c0.21-0.075 0.36-0.255 0.36-0.485v-15.12c0-0.275-0.225-0.5-0.5-0.5zM15 19l-6-2.105v-11.895l6 2.105v11.895z"></path>
</svg>
